X:1
T:Sample tune - abcm2ps (sample5.abc) - New features in abcm2ps-5.x.x - Subtitle one - Subtitle two
T:Sample tune - abcm2ps (sample5.abc) - New features in abcm2ps-5.x.x - Subtitle one - Subtitle two
T:This is the composer field
C:This is the composer field
L:1/8
Q:1/4=120
M:4/4
K:C
V:1 treble 
V:1
"C""^Tempo in the tune header""^Tempo in the tune body" C2"^Dm G" D4"C" C2"^<- guitar chords between symbols" | %1
 C/E/G/E/ C/E/G/E/"^sequence repeat" C/E/G/E/ C/E/G/E/ |"^measure repeat" G2 A2 B2 c2 | %3
 G2 A2 B2 c2 | G2 A2 B2 c2 | G4 d4 | B4 d4 | G4 d4 | B4 d4 | c8 || %10
"^tremolo 2 notes" z C/c/ Cc C2 c2 | C4 c4 | z C/c/ Cc C2 c2 | C4 c4 | %14
"^tremolo 1 note" z2 C/!/!c/ c/!/!C/ C!/!c c!/!C | z2 C/!//!c/ c/!//!C/ C!//!c c!//!C | %16
 z2 !/!C!/!c !/!C2 !/!c2 | !/!C4 !/!c4 | z2 !//!C!//!c !//!C2 !//!c2 | !//!C4 !//!c4 || !/!C8 | %21
 !/!c8 | !//!C8 | !//!c8 | %24

